X:1
T:Rochester (Williams), CM
T:Rochester (Williams), CM
T:Aaron Williams’ Universal Psalmodist, 1764
T:Public Domain Courtesy of the Cyber Hymnal™
C:Aaron Williams’ Universal Psalmodist, 1764
Z:Public Domain
Z:Courtesy of the Cyber Hymnal™
%%score ( 1 2 ) ( 3 4 )
L:1/8
Q:1/4=115
M:4/4
K:F
V:1 treble 
V:2 treble 
V:3 bass 
V:4 bass 
V:1
 [CF]2 | [CF]2 [CG]2 [CA]2 [DF]2 | [DG]2 [CE]2 [CF]2 [FA]2 | [FB]2 [Fc]2 [Fd]2 [Fd]2 | %4
 [Fc]6 [Cc]2 | B2 [FA]2 [Fd]2 [Ec]2 | [FB]2 [FA]2 [EG]2 [CA]2 | [A,F]2 C2 (BA) [EG]2 | [CF]6 |] %9
V:2
 x2 | x8 | x8 | x8 | x8 | (DE) x6 | x8 | x2 C2 D2 x2 | x6 |] %9
V:3
 [F,A,]2 | [F,A,]2 [E,G,]2 (F,G,) [D,A,]2 | [B,,B,]2 [C,G,]2 [F,,A,]2 C2 | %3
 [D,B,]2 [C,A,]2 [B,,B,]2 [D,B,]2 | [F,A,]6 A,2 | [G,B,]2 [F,C]2 [B,,B,]2 [C,G,]2 | %6
 D2 [F,C]2 [C,C]2 [A,,E,]2 | [D,F,]2 [A,,F,]2 [B,,F,]2 [C,C]2 | [F,A,]6 |] %9
V:4
 x2 | x4 F,2 x2 | x6 (F,E,) | x8 | x6 A,2 | x8 | (D,E,) x6 | x8 | x6 |] %9

